svgs/bzepaper.svg

<svg xmlns="http://www.w3.org/2000/svg" viewBox="0 0 192 192"><path d="M54.43 175.288c-.334-.391-4.507-11.879-9.274-25.528-4.767-13.648-8.914-25.307-9.216-25.908-.712-1.416-1.189-1.689-3.403-1.948-1.715-.2-1.831-.291-1.831-1.434v-1.221l10.272-.108 10.272-.109v1.431c0 1.381-.053 1.431-1.525 1.437-.839.003-1.722.141-1.962.305-1.27.869-1.549-.156 8.629 31.771 1.238 3.885 2.391 6.906 2.562 6.713.827-.938 10.59-29.947 10.881-32.332.265-2.171-.363-4.419-1.528-5.473-.448-.405-1.585-.839-2.528-.965-1.58-.211-1.724-.332-1.841-1.551l-.128-1.322h21.206v2.848h-2.02c-2.107 0-2.867.615-2.857 2.312.006 1.13 11.134 36.51 11.556 36.742.801.44 11.608-33.695 11.624-36.715.007-1.329-1.485-2.339-3.454-2.339-1.821 0-1.831-.008-1.831-1.424v-1.424h21.095l8.813 11.086c17.261 21.71 23.592 29.546 23.893 29.57.426.035.356-22.63-.09-29.088-.202-2.924-.597-5.821-.879-6.438-.686-1.506-2.322-2.282-4.808-2.282h-2.054v-2.848h17.493v1.424c0 1.415-.011 1.424-1.821 1.424-2.589 0-3.055.879-3.497 6.602-.668 8.637-1.188 24.113-1.189 35.401-.002 14.496.393 14.341-8.826 3.473-5.533-6.522-21.474-25.942-27.382-33.358-1.902-2.387-3.687-4.351-3.967-4.364-.39-.019-.508 1.798-.506 7.806.002 10.563.756 29.443 1.249 31.31.518 1.962 1.714 2.761 4.128 2.761h1.943v2.848h-17.544l.127-1.322c.124-1.284.192-1.329 2.325-1.526 4.405-.408 4.602-1.499 4.668-25.833.049-18.198.028-18.752-.786-20.137-.46-.783-.996-1.424-1.192-1.424-.196 0-4.536 11.348-9.646 25.218-5.109 13.87-9.631 25.559-10.047 25.975-.599.599-.928.666-1.571.322-.863-.462-1.377-1.858-10.525-28.626-2.656-7.773-4.93-14.134-5.053-14.137-.123-.003-.433.59-.69 1.317C59.457 168.923 56.687 176 55.336 176c-.164 0-.572-.32-.906-.712Zm-15.256-72.372c.145-.145.679-.471 1.187-.723.874-.435.928-.723 1.04-5.533.14-6.033-.006-6.81-1.344-7.146-2.494-.626-.511-.979 5.498-.979h6.509v1.83c0 1.007-.073 1.831-.163 1.831-.089 0-.803-.641-1.586-1.424-1.255-1.255-1.67-1.424-3.499-1.424h-2.075v3.051c0 3.005.016 3.052 1.044 3.052 1.445 0 2.495-.637 3.204-1.943.574-1.057.602-.958.616 2.146l.015 3.255-.77-1.263c-.683-1.12-2.086-1.789-3.753-1.789-.549 0-.429 5.46.132 6.021.269.269 1.443.488 2.609.488 2.179 0 2.832-.448 4.507-3.098.409-.646.488-.4.509 1.573l.024 2.339h-6.984c-3.841 0-6.865-.119-6.72-.264Zm27.535-.114c0-.209.412-.437.916-.509.896-.127.917-.256 1.028-6.134l.112-6.005-1.028-.468c-1.844-.84-1.093-1.151 2.782-1.151 4.504 0 7.849.561 8.875 1.49 1.164 1.053.998 3.837-.307 5.141-1.032 1.033-1.53 1.205-4.972 1.726l-1.747.264.12 2.503c.108 2.244.215 2.518 1.035 2.634.504.072.916.3.916.509 0 .208-1.739.378-3.865.378-2.126 0-3.865-.17-3.865-.378Zm7.678-6.987c1.496-.522 2.086-1.428 2.086-3.204 0-1.562-1.58-3.263-3.033-3.263-1.028 0-1.035.025-1.035 3.458 0 1.902.155 3.458.346 3.458.19 0 .926-.202 1.636-.449Zm8.188 6.958c0-.223.246-.407.547-.407 1.002 0 1.789-1.374 4.376-7.646 2.396-5.809 2.634-6.215 3.572-6.103.886.107 1.298.846 3.512 6.306 2.602 6.417 3.169 7.443 4.112 7.443.308 0 .561.184.561.407 0 .243-1.56.407-3.865.407-2.306 0-3.865-.164-3.865-.407 0-.223.458-.407 1.017-.407 1.208 0 1.287-.626.332-2.63-.679-1.422-.713-1.438-3.265-1.438-2.424 0-2.604.066-2.994 1.092-.614 1.615-.324 2.752.74 2.903 2.035.289.733.887-1.932.887-1.627 0-2.848-.174-2.848-.407Zm8.509-7.409c-1.322-3.354-1.472-3.538-1.923-2.354-.213.559-.683 1.726-1.046 2.592-.362.866-.658 1.644-.658 1.729 0 .084 1.004.154 2.231.154h2.232Zm10.611 7.409c0-.223.33-.407.733-.407 1.493 0 1.708-.802 1.708-6.358 0-4.349-.122-5.504-.639-6.02-.352-.352-.901-.64-1.22-.64-.32 0-.582-.209-.582-.464 0-.336 1.534-.406 5.532-.254 4.62.177 5.705.341 6.585.998 1.59 1.187 1.932 2.67 1.037 4.492-.815 1.659-2.121 2.309-5.545 2.758l-1.952.256.121 2.311c.102 1.945.266 2.375 1.037 2.713 1.709.75.923 1.022-2.95 1.022-2.305 0-3.865-.164-3.865-.407Zm9.025-7.594c.872-.788 1.011-3.676.229-4.745-.28-.384-1.196-.809-2.034-.945l-1.524-.247v7.124l1.295-.259c.713-.143 1.628-.56 2.034-.928Zm8.062 7.623c0-.209.412-.437.915-.509.896-.127.918-.256 1.028-6.134l.113-6.005-1.028-.468c-.566-.257-1.028-.622-1.028-.81 0-.188 2.837-.341 6.305-.341h6.306l-.011 1.932-.011 1.932-1.149-1.385c-1.004-1.21-1.439-1.409-3.447-1.576l-2.298-.19v3.101c0 2.796.078 3.102.787 3.102 1.51 0 2.851-.783 3.111-1.817.5-1.993.984-1 .984 2.02 0 2.986-.483 4.018-.971 2.075-.155-.618-.716-1.141-1.528-1.424-2.266-.79-2.383-.684-2.383 2.163 0 3.782.086 3.898 2.862 3.898 2.061 0 2.475-.136 3.194-1.05.455-.578.938-1.402 1.074-1.831.682-2.147 1.378.435.75 2.78-.242.902-.342.915-6.91.915-3.84 0-6.665-.16-6.665-.378Zm17.493 0c0-.209.412-.437.915-.509.896-.127.918-.256 1.028-6.134l.113-6.005-1.028-.468c-1.845-.84-1.094-1.151 2.781-1.151 4.505 0 7.849.561 8.875 1.49 1.223 1.106.986 3.52-.465 4.74-.663.558-1.44 1.093-1.728 1.189-.711.237 3.895 5.906 5.31 6.535.98.436.814.493-1.766.607-3.178.141-2.7.462-5.856-3.935-2.23-3.108-2.891-3.206-2.891-.429 0 2.287.534 3.634 1.438 3.634.328 0 .596.184.596.407 0 .241-1.491.407-3.661.407-2.014 0-3.661-.17-3.661-.378Zm8.51-7.657c2.21-1.805 1.17-5.386-1.603-5.523l-1.415-.07-.119 3.153-.119 3.152h1.193c.655 0 1.584-.32 2.063-.712Zm-87.839 2.543c0-.988.081-1.017 2.847-1.017 2.767 0 2.848.029 2.848 1.017 0 .988-.081 1.017-2.848 1.017-2.766 0-2.847-.029-2.847-1.017Zm79.736-25.071c-1.679-.2-11.458-.499-21.732-.665-13.018-.209-18.725-.436-18.829-.749-.082-.247 2.271-3.817 5.229-7.933 22.18-30.865 31.263-43.632 31.263-43.941 0-.198-4.305-.36-9.573-.36-7.549 0-9.879.128-11.02.605-1.626.679-5.482 4.558-9.176 9.229-2.267 2.868-2.544 3.087-3.407 2.694l-.94-.428 1.764-4.931c3.897-10.894 3.589-10.235 4.7-10.07.553.082 9.915.174 20.804.203 10.889.03 19.924.18 20.078.334.154.154-5.114 7.751-11.707 16.883a20565.853 20565.853 0 0 0-18.714 25.959l-6.727 9.357 12.061.118c6.633.065 12.639.014 13.346-.113 1.523-.274 5.733-4.037 9.281-8.297 1.326-1.592 2.695-2.892 3.042-2.889 1.717.017 1.62.595-1.23 7.328-1.559 3.685-2.987 6.975-3.173 7.311-.417.754-1.438.822-5.34.355Zm-92.206-1.066c-.453-1.806.029-2.137 3.121-2.137h2.881l.59-1.41c.489-1.173.589-5.075.587-23.087-.002-13.727-.157-22.234-.425-23.197-.539-1.94-1.336-2.344-4.631-2.344h-2.671V16.47l16.171.15c15.351.143 16.307.196 18.857 1.044 5.475 1.823 8.158 5.623 8.158 11.556 0 2.687-.185 3.618-1.09 5.467-1.264 2.583-3.806 4.785-7.245 6.275-1.261.546-2.295 1.115-2.299 1.265-.004.15.954.587 2.129.971 5.294 1.734 8.949 4.532 10.746 8.23.991 2.037 1.131 2.801 1.137 6.189.007 3.384-.134 4.168-1.128 6.305-1.492 3.209-3.964 5.697-6.664 6.707-3.998 1.496-7.154 1.744-22.822 1.791l-15.172.046Zm29.852-2.794c3.01-1.504 4.683-3.887 5.401-7.691.701-3.714.289-7.129-1.236-10.24-2.219-4.529-6.1-6.586-13.106-6.946l-3.966-.204v10.045c0 11.069.28 13.064 2.091 14.875 1.41 1.409 2.176 1.604 5.731 1.452 2.039-.087 3.337-.416 5.085-1.291Zm-4.007-28.046c4.386-1.302 7.062-5.273 7.118-10.561.059-5.516-2.279-8.795-7.399-10.377-2.902-.896-7.377-1.07-8.131-.316-.355.355-.488 3.409-.488 11.188v10.699h3.384c1.878 0 4.333-.282 5.516-.633Z"/></svg>

<svg
    xmlns="http://www.w3.org/2000/svg"
    viewBox="0 0 192 192"
    id="vector">
    <g id="group">
        <path
            id="path_6"
            d="M 54.43 175.288 C 54.096 174.897 49.923 163.409 45.156 149.76 C 40.389 136.112 36.242 124.453 35.94 123.852 C 35.228 122.436 34.751 122.163 32.537 121.904 C 30.822 121.704 30.706 121.613 30.706 120.47 L 30.706 119.249 L 40.978 119.141 L 51.25 119.032 L 51.25 120.463 C 51.25 121.844 51.197 121.894 49.725 121.9 C 48.886 121.903 48.003 122.041 47.763 122.205 C 46.493 123.074 46.214 122.049 56.392 153.976 C 57.63 157.861 58.783 160.882 58.954 160.689 C 59.781 159.751 69.544 130.742 69.835 128.357 C 70.1 126.186 69.472 123.938 68.307 122.884 C 67.859 122.479 66.722 122.045 65.779 121.919 C 64.199 121.708 64.055 121.587 63.938 120.368 L 63.81 119.046 L 85.016 119.046 L 85.016 121.894 L 82.996 121.894 C 80.889 121.894 80.129 122.509 80.139 124.206 C 80.145 125.336 91.273 160.716 91.695 160.948 C 92.496 161.388 103.303 127.253 103.319 124.233 C 103.326 122.904 101.834 121.894 99.865 121.894 C 98.044 121.894 98.034 121.886 98.034 120.47 L 98.034 119.046 L 119.129 119.046 L 127.942 130.132 C 145.203 151.842 151.534 159.678 151.835 159.702 C 152.261 159.737 152.191 137.072 151.745 130.614 C 151.543 127.69 151.148 124.793 150.866 124.176 C 150.18 122.67 148.544 121.894 146.058 121.894 L 144.004 121.894 L 144.004 119.046 L 161.497 119.046 L 161.497 120.47 C 161.497 121.885 161.486 121.894 159.676 121.894 C 157.087 121.894 156.621 122.773 156.179 128.496 C 155.511 137.133 154.991 152.609 154.99 163.897 C 154.988 178.393 155.383 178.238 146.164 167.37 C 140.631 160.848 124.69 141.428 118.782 134.012 C 116.88 131.625 115.095 129.661 114.815 129.648 C 114.425 129.629 114.307 131.446 114.309 137.454 C 114.311 148.017 115.065 166.897 115.558 168.764 C 116.076 170.726 117.272 171.525 119.686 171.525 L 121.629 171.525 L 121.629 174.373 L 104.085 174.373 L 104.212 173.051 C 104.336 171.767 104.404 171.722 106.537 171.525 C 110.942 171.117 111.139 170.026 111.205 145.692 C 111.254 127.494 111.233 126.94 110.419 125.555 C 109.959 124.772 109.423 124.131 109.227 124.131 C 109.031 124.131 104.691 135.479 99.581 149.349 C 94.472 163.219 89.95 174.908 89.534 175.324 C 88.935 175.923 88.606 175.99 87.963 175.646 C 87.1 175.184 86.586 173.788 77.438 147.02 C 74.782 139.247 72.508 132.886 72.385 132.883 C 72.262 132.88 71.952 133.473 71.695 134.2 C 59.457 168.923 56.687 176 55.336 176 C 55.172 176 54.764 175.68 54.43 175.288 Z M 39.174 102.916 C 39.319 102.771 39.853 102.445 40.361 102.193 C 41.235 101.758 41.289 101.47 41.401 96.66 C 41.541 90.627 41.395 89.85 40.057 89.514 C 37.563 88.888 39.546 88.535 45.555 88.535 L 52.064 88.535 L 52.064 90.365 C 52.064 91.372 51.991 92.196 51.901 92.196 C 51.812 92.196 51.098 91.555 50.315 90.772 C 49.06 89.517 48.645 89.348 46.816 89.348 L 44.741 89.348 L 44.741 92.399 C 44.741 95.404 44.757 95.451 45.785 95.451 C 47.23 95.451 48.28 94.814 48.989 93.508 C 49.563 92.451 49.591 92.55 49.605 95.654 L 49.62 98.909 L 48.85 97.646 C 48.167 96.526 46.764 95.857 45.097 95.857 C 44.548 95.857 44.668 101.317 45.229 101.878 C 45.498 102.147 46.672 102.366 47.838 102.366 C 50.017 102.366 50.67 101.918 52.345 99.268 C 52.754 98.622 52.833 98.868 52.854 100.841 L 52.878 103.18 L 45.894 103.18 C 42.053 103.18 39.029 103.061 39.174 102.916 Z M 66.709 102.802 C 66.709 102.593 67.121 102.365 67.625 102.293 C 68.521 102.166 68.542 102.037 68.653 96.159 L 68.765 90.154 L 67.737 89.686 C 65.893 88.846 66.644 88.535 70.519 88.535 C 75.023 88.535 78.368 89.096 79.394 90.025 C 80.558 91.078 80.392 93.862 79.087 95.166 C 78.055 96.199 77.557 96.371 74.115 96.892 L 72.368 97.156 L 72.488 99.659 C 72.596 101.903 72.703 102.177 73.523 102.293 C 74.027 102.365 74.439 102.593 74.439 102.802 C 74.439 103.01 72.7 103.18 70.574 103.18 C 68.448 103.18 66.709 103.01 66.709 102.802 Z M 74.387 95.815 C 75.883 95.293 76.473 94.387 76.473 92.611 C 76.473 91.049 74.893 89.348 73.44 89.348 C 72.412 89.348 72.405 89.373 72.405 92.806 C 72.405 94.708 72.56 96.264 72.751 96.264 C 72.941 96.264 73.677 96.062 74.387 95.815 Z M 82.575 102.773 C 82.575 102.55 82.821 102.366 83.122 102.366 C 84.124 102.366 84.911 100.992 87.498 94.72 C 89.894 88.911 90.132 88.505 91.07 88.617 C 91.956 88.724 92.368 89.463 94.582 94.923 C 97.184 101.34 97.751 102.366 98.694 102.366 C 99.002 102.366 99.255 102.55 99.255 102.773 C 99.255 103.016 97.695 103.18 95.39 103.18 C 93.084 103.18 91.525 103.016 91.525 102.773 C 91.525 102.55 91.983 102.366 92.542 102.366 C 93.75 102.366 93.829 101.74 92.874 99.736 C 92.195 98.314 92.161 98.298 89.609 98.298 C 87.185 98.298 87.005 98.364 86.615 99.39 C 86.001 101.005 86.291 102.142 87.355 102.293 C 89.39 102.582 88.088 103.18 85.423 103.18 C 83.796 103.18 82.575 103.006 82.575 102.773 Z M 91.084 95.364 C 89.762 92.01 89.612 91.826 89.161 93.01 C 88.948 93.569 88.478 94.736 88.115 95.602 C 87.753 96.468 87.457 97.246 87.457 97.331 C 87.457 97.415 88.461 97.485 89.688 97.485 L 91.92 97.485 Z M 101.695 102.773 C 101.695 102.55 102.025 102.366 102.428 102.366 C 103.921 102.366 104.136 101.564 104.136 96.008 C 104.136 91.659 104.014 90.504 103.497 89.988 C 103.145 89.636 102.596 89.348 102.277 89.348 C 101.957 89.348 101.695 89.139 101.695 88.884 C 101.695 88.548 103.229 88.478 107.227 88.63 C 111.847 88.807 112.932 88.971 113.812 89.628 C 115.402 90.815 115.744 92.298 114.849 94.12 C 114.034 95.779 112.728 96.429 109.304 96.878 L 107.352 97.134 L 107.473 99.445 C 107.575 101.39 107.739 101.82 108.51 102.158 C 110.219 102.908 109.433 103.18 105.56 103.18 C 103.255 103.18 101.695 103.016 101.695 102.773 Z M 110.72 95.179 C 111.592 94.391 111.731 91.503 110.949 90.434 C 110.669 90.05 109.753 89.625 108.915 89.489 L 107.391 89.242 L 107.391 96.366 L 108.686 96.107 C 109.399 95.964 110.314 95.547 110.72 95.179 Z M 118.782 102.802 C 118.782 102.593 119.194 102.365 119.697 102.293 C 120.593 102.166 120.615 102.037 120.725 96.159 L 120.838 90.154 L 119.81 89.686 C 119.244 89.429 118.782 89.064 118.782 88.876 C 118.782 88.688 121.619 88.535 125.087 88.535 L 131.393 88.535 L 131.382 90.467 L 131.371 92.399 L 130.222 91.014 C 129.218 89.804 128.783 89.605 126.775 89.438 L 124.477 89.248 L 124.477 92.349 C 124.477 95.145 124.555 95.451 125.264 95.451 C 126.774 95.451 128.115 94.668 128.375 93.634 C 128.875 91.641 129.359 92.634 129.359 95.654 C 129.359 98.64 128.876 99.672 128.388 97.729 C 128.233 97.111 127.672 96.588 126.86 96.305 C 124.594 95.515 124.477 95.621 124.477 98.468 C 124.477 102.25 124.563 102.366 127.339 102.366 C 129.4 102.366 129.814 102.23 130.533 101.316 C 130.988 100.738 131.471 99.914 131.607 99.485 C 132.289 97.338 132.985 99.92 132.357 102.265 C 132.115 103.167 132.015 103.18 125.447 103.18 C 121.607 103.18 118.782 103.02 118.782 102.802 Z M 136.275 102.802 C 136.275 102.593 136.687 102.365 137.19 102.293 C 138.086 102.166 138.108 102.037 138.218 96.159 L 138.331 90.154 L 137.303 89.686 C 135.458 88.846 136.209 88.535 140.084 88.535 C 144.589 88.535 147.933 89.096 148.959 90.025 C 150.182 91.131 149.945 93.545 148.494 94.765 C 147.831 95.323 147.054 95.858 146.766 95.954 C 146.055 96.191 150.661 101.86 152.076 102.489 C 153.056 102.925 152.89 102.982 150.31 103.096 C 147.132 103.237 147.61 103.558 144.454 99.161 C 142.224 96.053 141.563 95.955 141.563 98.732 C 141.563 101.019 142.097 102.366 143.001 102.366 C 143.329 102.366 143.597 102.55 143.597 102.773 C 143.597 103.014 142.106 103.18 139.936 103.18 C 137.922 103.18 136.275 103.01 136.275 102.802 Z M 144.785 95.145 C 146.995 93.34 145.955 89.759 143.182 89.622 L 141.767 89.552 L 141.648 92.705 L 141.529 95.857 L 142.722 95.857 C 143.377 95.857 144.306 95.537 144.785 95.145 Z M 56.946 97.688 C 56.946 96.7 57.027 96.671 59.793 96.671 C 62.56 96.671 62.641 96.7 62.641 97.688 C 62.641 98.676 62.56 98.705 59.793 98.705 C 57.027 98.705 56.946 98.676 56.946 97.688 Z M 136.682 72.617 C 135.003 72.417 125.224 72.118 114.95 71.952 C 101.932 71.743 96.225 71.516 96.121 71.203 C 96.039 70.956 98.392 67.386 101.35 63.27 C 123.53 32.405 132.613 19.638 132.613 19.329 C 132.613 19.131 128.308 18.969 123.04 18.969 C 115.491 18.969 113.161 19.097 112.02 19.574 C 110.394 20.253 106.538 24.132 102.844 28.803 C 100.577 31.671 100.3 31.89 99.437 31.497 L 98.497 31.069 L 100.261 26.138 C 104.158 15.244 103.85 15.903 104.961 16.068 C 105.514 16.15 114.876 16.242 125.765 16.271 C 136.654 16.301 145.689 16.451 145.843 16.605 C 145.997 16.759 140.729 24.356 134.136 33.488 C 127.543 42.619 119.122 54.301 115.422 59.447 L 108.695 68.804 L 120.756 68.922 C 127.389 68.987 133.395 68.936 134.102 68.809 C 135.625 68.535 139.835 64.772 143.383 60.512 C 144.709 58.92 146.078 57.62 146.425 57.623 C 148.142 57.64 148.045 58.218 145.195 64.951 C 143.636 68.636 142.208 71.926 142.022 72.262 C 141.605 73.016 140.584 73.084 136.682 72.617 Z M 44.476 71.551 C 44.023 69.745 44.505 69.414 47.597 69.414 L 50.478 69.414 L 51.068 68.004 C 51.557 66.831 51.657 62.929 51.655 44.917 C 51.653 31.19 51.498 22.683 51.23 21.72 C 50.691 19.78 49.894 19.376 46.599 19.376 L 43.928 19.376 L 43.928 16.47 L 60.099 16.62 C 75.45 16.763 76.406 16.816 78.956 17.664 C 84.431 19.487 87.114 23.287 87.114 29.22 C 87.114 31.907 86.929 32.838 86.024 34.687 C 84.76 37.27 82.218 39.472 78.779 40.962 C 77.518 41.508 76.484 42.077 76.48 42.227 C 76.476 42.377 77.434 42.814 78.609 43.198 C 83.903 44.932 87.558 47.73 89.355 51.428 C 90.346 53.465 90.486 54.229 90.492 57.617 C 90.499 61.001 90.358 61.785 89.364 63.922 C 87.872 67.131 85.4 69.619 82.7 70.629 C 78.702 72.125 75.546 72.373 59.878 72.42 L 44.706 72.466 Z M 74.328 68.757 C 77.338 67.253 79.011 64.87 79.729 61.066 C 80.43 57.352 80.018 53.937 78.493 50.826 C 76.274 46.297 72.393 44.24 65.387 43.88 L 61.421 43.676 L 61.421 53.721 C 61.421 64.79 61.701 66.785 63.512 68.596 C 64.922 70.005 65.688 70.2 69.243 70.048 C 71.282 69.961 72.58 69.632 74.328 68.757 Z M 70.321 40.711 C 74.707 39.409 77.383 35.438 77.439 30.15 C 77.498 24.634 75.16 21.355 70.04 19.773 C 67.138 18.877 62.663 18.703 61.909 19.457 C 61.554 19.812 61.421 22.866 61.421 30.645 L 61.421 41.344 L 64.805 41.344 C 66.683 41.344 69.138 41.062 70.321 40.711 Z"
            fill="#000000"
            stroke-width="12"/>
    </g>
</svg>
